X:624
T:Morning Dream., The
R:air
T:aisling na maidne.
Z:Tempo: Moderate.
M:3/4
L:1/8
Q:85
K:G
(de>d)|(d2 B)(gfe)|(d2 G2) (G>A)|B2 (eBAG)|A2z (de>d)|
(d2 B)(gfe)|(d2 G2) (G>A)|B2 (cB) ({B}A>G)|G2 z||
(gfe)|(d2 B).G.A.B|(c>d e2) (ge)|d2 (ed)(BG)|A2 z (gfe)|
(d>B G)(cBA)|B>G E2 G>A|(Bd) ({d}c>B) ({B}AG)|G2 z||


